X:40
T:Midwinter Blossom
C:Bob Pasquarello 1989
M:3/4
Z:SG
K:G
D2|"G"D2 G2 GB| "Am"A4 B2|"C"c2cB ce|"Bm"d2e2f2|"Em"g3fe2|
"Bm"d3BA2|"Am"B2c2G2|"D"G2F2D2|"G"D2G2GB|"Am"A4B2|
"C"c2cB ce|"Bm"d2B2A2|"Em"B3A GF|"Am"A3G FE|"D"D2 [B2B,2] (3[AA,][BB,][AA,]|"G"[G4G,4] B2|
"C"c2cB ce|"Bm"d2B3A|"Em"B2G2G2|"D"G2F2D2|"C"c2cB ce|
"Bm"d2 B2 A2|"Em"B2 e3 f|gf ed "D"cB|"C"c2 cB ce|"Bm"d2B2A2|
"Em"B2G2G2|"D"G2F2D2| "C" C3D EG|"D"F3GA2|"Em"BG EA "B7"GF|"Em"E4|]
